att.svg

<svg viewBox="0 0 24 24" xmlns="http://www.w3.org/2000/svg"><path d="M4.64137 21.474C6.67582 23.0489 9.2294 23.9951 11.9999 23.9951C15.0318 23.9951 17.7957 22.8695 19.9052 21.0217C19.9308 20.9991 19.9181 20.9842 19.8929 20.9991C18.9464 21.6313 16.2485 23.0113 12 23.0113C8.30792 23.0113 5.97466 22.1875 4.65701 21.452C4.6318 21.4396 4.62246 21.4585 4.64137 21.474M12.8145 22.0872C15.7675 22.0872 19.0125 21.2822 20.9533 19.6887C21.4844 19.2546 21.9902 18.6767 22.4433 17.9002C22.7041 17.4533 22.9592 16.9225 23.167 16.4007C23.1762 16.3752 23.1605 16.3628 23.1414 16.3914C21.3366 19.0474 16.1103 20.704 10.7139 20.704C6.89952 20.704 2.79532 19.4842 1.18849 17.1552C1.17267 17.1336 1.15686 17.1428 1.16649 17.1676C2.66336 20.3492 7.20452 22.0872 12.8145 22.0872M9.58804 16.8091C3.44635 16.8091 0.550414 13.9487 0.0250958 11.9966C0.0186175 11.9684 0 11.9746 0 12C0 12.6571 0.0657742 13.5052 0.178939 14.0681C0.232924 14.3421 0.455926 14.7721 0.782871 15.1149C2.27006 16.665 5.97781 18.8372 12.3991 18.8372C21.1477 18.8372 23.1481 15.9229 23.5566 14.9645C23.8487 14.2791 24 13.0405 24 12C24 11.7483 23.9937 11.5471 23.9842 11.3497C23.9842 11.3177 23.9656 11.315 23.9592 11.3463C23.522 13.6913 16.0473 16.8091 9.58804 16.8091M1.15686 6.85406C0.804932 7.55248 0.414839 8.73075 0.298873 9.34058C0.248039 9.60187 0.269692 9.72735 0.36132 9.92233C1.09744 11.4842 4.82089 13.9831 13.5062 13.9831C18.8049 13.9831 22.9211 12.6813 23.588 10.3058C23.7108 9.86852 23.7174 9.40682 23.5596 8.78468C23.3833 8.08947 23.0532 7.27876 22.7739 6.70949C22.7646 6.69094 22.7484 6.69368 22.7517 6.71562C22.8555 9.83135 14.1667 11.8394 9.78267 11.8394C5.03403 11.8394 1.07235 9.94743 1.07235 7.55843C1.07235 7.32889 1.11985 7.0993 1.17915 6.86036C1.1851 6.83853 1.16643 6.83492 1.15686 6.85406M19.9246 3.02859C19.9751 3.10761 20.0002 3.19195 20.0002 3.30546C20.0002 4.63822 15.9212 6.99594 9.42801 6.99594C4.65701 6.99594 3.76378 5.22604 3.76378 4.10047C3.76378 3.69812 3.91809 3.28643 4.25793 2.86833C4.27649 2.84347 4.26073 2.83389 4.23931 2.85239C3.61951 3.37765 3.05001 3.96869 2.55043 4.6067C2.31173 4.90844 2.16355 5.17574 2.16355 5.33588C2.16355 7.66844 8.01237 9.35966 13.4812 9.35966C19.3083 9.35966 21.9089 7.45741 21.9089 5.78568C21.9089 5.18823 21.6764 4.83945 21.0814 4.16327C20.6952 3.72339 20.33 3.36522 19.9433 3.01266C19.9246 2.99725 19.9116 3.0098 19.9246 3.02859M18.1382 1.69612C16.3398 0.618173 14.2515 0.00490243 12 0.00490243C9.73289 0.00490243 7.5816 0.639591 5.77675 1.74608C5.23538 2.07927 4.93067 2.34628 4.93067 2.68951C4.93067 3.70127 7.29522 4.78914 11.4902 4.78914C15.6417 4.78914 18.8617 3.59756 18.8617 2.45057C18.8617 2.17679 18.6224 1.98525 18.1382 1.69612" fill="#00a8e0" /></svg>

<svg viewBox="0 0 24 24" xmlns="http://www.w3.org/2000/svg"><path d="M4.641 21.474A11.989 11.989 0 0 0 12 23.995c3.032 0 5.796-1.126 7.905-2.973.026-.023.013-.038-.012-.023-.947.632-3.645 2.012-7.893 2.012-3.692 0-6.025-.823-7.343-1.559-.025-.012-.035.006-.016.022m8.174.613c2.953 0 6.197-.805 8.138-2.398.531-.434 1.037-1.012 1.49-1.789.261-.447.516-.977.724-1.5.01-.025-.007-.037-.026-.009-1.804 2.656-7.03 4.313-12.427 4.313-3.814 0-7.919-1.22-9.526-3.549-.015-.021-.031-.012-.022.013 1.497 3.181 6.039 4.92 11.649 4.92m-3.227-5.279c-6.142 0-9.038-2.86-9.563-4.812C.02 11.968 0 11.975 0 12c0 .657.066 1.505.179 2.068.054.274.277.704.604 1.047 1.487 1.55 5.195 3.722 11.616 3.722 8.749 0 10.75-2.914 11.158-3.873C23.849 14.28 24 13.04 24 12c0-.252-.006-.453-.016-.65 0-.032-.018-.035-.025-.004-.437 2.345-7.912 5.463-14.371 5.463M1.157 6.854C.805 7.552.415 8.731.299 9.341c-.051.26-.03.386.062.581.736 1.562 4.46 4.061 13.145 4.061 5.299 0 9.415-1.302 10.082-3.677.123-.437.13-.9-.028-1.521-.177-.696-.507-1.506-.786-2.076-.01-.018-.026-.015-.022.007.104 3.115-8.585 5.123-12.97 5.123-4.748 0-8.71-1.892-8.71-4.28 0-.23.048-.46.107-.699.006-.021-.013-.025-.022-.006M19.925 3.03c.05.079.075.163.075.276 0 1.333-4.079 3.69-10.572 3.69-4.771 0-5.664-1.769-5.664-2.895 0-.402.154-.814.494-1.232.018-.025.003-.034-.019-.016-.62.526-1.189 1.117-1.689 1.755-.238.301-.386.569-.386.729 0 2.332 5.848 4.024 11.317 4.024 5.827 0 8.428-1.903 8.428-3.574 0-.598-.233-.947-.828-1.623-.386-.44-.751-.798-1.138-1.15-.018-.016-.031-.003-.018.016m-1.787-1.333A11.867 11.867 0 0 0 12 .005c-2.267 0-4.418.635-6.223 1.741-.542.333-.846.6-.846.944 0 1.011 2.364 2.1 6.56 2.1 4.15 0 7.37-1.192 7.37-2.34 0-.273-.239-.465-.723-.754" fill="#00a8e0"/></svg>
